X:1
T:Songs for Pianoforte, 1836-7
T:Songs for Pianoforte, 1836-7
T:No. 9
T:Fanny Hensel (née Mendelssohn)
T:P.D.
T:P.D.
T:P.D.
T:P.D.
T:P.D.
T:P.D.
T:P.D.
C:Fanny Hensel (née Mendelssohn)
Z:P.D.
%%score { ( 1 3 ) | ( 2 4 ) }
L:1/8
Q:1/4=50
M:4/4
K:G
V:1 treble nm="Piano" snm="Pno."
V:3 treble 
V:2 bass 
V:4 bass 
V:1
!p!"^Largo con espressione" (B6 GA | B2 e2 g2 b2 | c'6 b^a | ^a4 b2) z2 | (B6 A^G | ^G4 A2) z2 | %6
 a4- agfe | (e4 ^d2) z2 |!f! [Bb]6 [Gg][Aa] | [Bb]2!8va(! [ee']2 [gg']2"_cresc." [bb']2 | %10
 [c'c'']4- [c'c''][_b_b'][_a_a'][gg'] | [gg']4 [ff']2 z2 | %12
"_dim." [=f=f']4- [ff'][_e_e'][_d_d'][cc'] | [cc']4 [Bb]2!8va)! z2 | %14
 ([=f=f']4- [ff'][_e_e'][dd'][cc'] | [cc']4 [Bb]2) z2 |!p! [df]6 [Bd][^ce] | %17
 [df]2 [df]2 [Be]2 [Ad]2 |!<(! d2 ^c2!<)!!mf!!>(! f2 ^A2!>)! |!p! B8 |!p! B6 GA | B2 e2 g2 b2 | %22
 c'6 b_b | ^g2 a2 z4 |"_cresc." d'6 ^c'=c' |!mp!!<(! ^a2 b2 z4!<)! | %26
!mf!"_sempre cresc." e'6 ^d'=d' | b2 c'4 c'2- | c'2 c'4 c'2 | %29
!f!{c'} a'6- (9:8:9a'/4f'/4^d'/4c'/4a/4f/4^d/4c/4A/4 |"_dim." ^G2 e'2- e'/f'/e'/c'/ a/e/c/A/ | %31
 ^G/B/e/^g/ b/^d'/e'- e'/f'/e'/c'/ a/e/c/A/ | ^G/B/e/^g/ b/^d'/f'/e'/ e'/=f'/e'/c'/ a/e/c/A/ | %33
 ^G/B/e/=G/ F/A/[de]/=F/ E/A/[ce]/^D/ =D/^G/[Be]/D/ | %34
!p! [^Ce]/E/G/_B/ ^c/e/g/_b/ ^c'/g/[eg]/c/ [Bf]/G/[Ee]/C/ | %35
 [De]/E/[Fd]/^G/ [Aa]/^c/d/f/ a/f/[da]/A/ [Fa]/D/[A,f]/F,/ | %36
 =fe [^Gb]/B/d/^g/ b/g/[df]/B/ [Ge]/=F/[Dd]/B,/ | %37
 ^c[g_b]- [gb]/[=fa]/[eg]/[df]/ [ce][eg]- [eg]/[eg]/[df]/[ce]/ | %38
 [d=f][fd']- [fd']/[ec']/[db]/[ca]/ [B^g][db]- [db]/[df]/[^ce]/[Bd]/ | %39
 [A^c][g_b]- [gb]/[=fa]/[eg]/[df]/ [ce][eg]- [eg]/[eg]/[df]/[ce]/ | %40
 [d=f][a=f']- [af']/[ge']/[fd']/[ec']/ [db][fd']- [fd']/[df]/[^ce]/[Bd]/ | %41
 [A^ca]/^g/a/f/ =g/f/g/e/ =f/e/[fa]/c/ [df_b]/A/[_Bdf]/^G/ | %42
 [A^ce]/^G/A/F/ =G/F/G/E/ =F/E/[FA]/^C/ [DF_B]/A,/[_B,DF]/^G,/ | %43
"_cresc." !>![A,^CE]/_B,/A,/B,/ !>!=B,/=C/B,/C/ !>!^C/D/C/D/ !>!^D/E/D/E/ | %44
 !>!=F/^F/=F/^F/ !>!G/^G/=G/^G/ !>!A/_B/A/A/!f! !>!=B/c/"_dim."B/c/ |!p! c6 AB | c2 e2 a2 b2 | %47
 c'6 ab |!8va(! c'2 g'2 c''2 d''2 | _e''4- e''/c''/a'/f'/ _e'/c'/a/!8va)!f/ | %50
 _e'/c'/a/f/ _e/c/A/F/ e/c/A/F/ _E/C/A,/F,/ | g'4- g'/e'/^c'/^a/ g/e/^c/^A/ | %52
 g/e/^c/^A/ G/E/^C/^A,/ G/E/C/A,/[I:staff +1] G,/E,/^C,/^A,,/ |!f![I:staff -1] B6 GA | %54
 B2 [Ee]2 [Gg]2 [Bb]2 | [cc']6 [Bb][^A^a] | [^A^a]2 [Bb]2"_dim." z4 | %57
 z [E^GB][EGB][EGB] [EGB][EGB][EGB][EGB] | z [E^GB][EGB][EGB] [B,EG][B,E][B,EGB][B,E] | %59
 ^c2 ^c'2- c'ba^g | a^gf^e f=e^d^c | B!p!!turn!!courtesy!^B e'>e' e'2[K:bass] B,,2 | %62
 ^A,,[K:treble]!turn!^c e'>e' e'2[K:bass] A,,2 | =A,,[K:treble]!turn!A g'>g' g'2[K:bass] A,,2 | %64
 ^G,,[K:treble]!turn!^G ^g'>g' g'2[K:bass] G,,2 | %65
 =G,,[K:treble] aa'[K:bass] G,,F,,[K:treble] ^a"_cresc."^a'[K:bass] E,, | %66
!f! ^D,,[K:treble] Bbb'- b'/^a'/=a'/f'/ ^d'/c'/b/^a/ | %67
 =a/"_dim."f/^d/c/ B/^A/=A/F/ ^D/C/B,/^A,/[I:staff +1] =A,/F,/^D,/B,,/ | %68
!p![I:staff -1] [Bb]6 [Gg][Aa] | [Bb]2 [ee']2 [gg']2!8va(! [bb']2 | [c'c'']6!8va)! [Ee][Ff] | %71
 [Gg]2 [cc']2!8va(! [ee']2 [gg']2 | [c'c'']6!8va)! [Ff][Gg] | [Aa]2 [cc']2 [ff']2 [aa']2 | x8 | %75
!ff! e''2 z2 [A,^DB]2 z2 |!p! EEEE EEEE | [DE][DE][DE][DE] [DE][DE][DE][DE] | [B^c]6 AB | %79
 c2 e2 a2 c'2 | b[B,F][B,F][B,F] A4- | A2 [Ac]2 [GB]2 [FA]2 | %82
 [B,F^G][B,F][B,E=G][B,E] [CEF][CE][G,D=F][G,D] | %83
 [G,DE][G,D][F,CE][F,C] [G,B,E][G,B,][A,^DG][A,DF] |{^G,E} B6 ^GA | B2 e2 ^g2 b2 | %86
 e'2 z2 [^G,B,^G]2 z2 | [^G,B,E]4 z4 |] %88
V:2
!ped! E,[G,B,EG][G,B,EG][G,B,EG] [G,B,EG][G,B,EG][G,B,EG][G,B,EG] | %1
 E,[G,B,EG][G,B,EG][G,B,EG] [G,B,EG][G,B,EG][G,B,EG][G,B,EG]!ped-up! | %2
!ped! E,[G,CG][G,CG][G,CG] [G,CG][G,CG][G,CG][G,CG]!ped-up! | %3
!ped! ^D,[F,^A,F][F,^CF][F,B,F] [F,B,F][F,B,F][F,B,F][F,B,F]!ped-up! | %4
!ped! D,[F,B,F][F,B,F][F,B,F] [F,B,F][F,B,F][F,B,F][F,B,F]!ped-up! | %5
!ped! ^C,[E,^G,E][E,B,E][E,A,E] [E,A,E][E,A,E][E,A,E][E,A,E]!ped-up! | %6
!ped! C,[E,A,E][E,A,E][E,A,E] [E,A,E][E,A,E][^D,A,^D][E,A,E]!ped-up! | %7
!ped! B,,[F,A,F][F,A,F][A,CF] [A,CF][G,B,F][G,B,F][F,A,F]!ped-up! | %8
!ped! E,,[G,B,EG][G,B,EG][G,B,EG] [G,B,EG][G,B,EG][G,B,EG][G,B,EG] | %9
 [E,,E,][G,B,EG][G,B,EG][G,B,EG] [G,B,EG][G,B,EG][G,B,EG][G,B,EG]!ped-up! | %10
!ped! [_E,,_E,][G,CG][G,CG][G,CG] [G,CG][G,CG][G,CG][G,CG]!ped-up! | %11
!ped! [D,,D,][A,CD][A,CD][A,CD] [A,CD][A,CD][A,CD][A,CD] | %12
 _A,,[_A,C=F][A,CF][A,CF] [A,CF][A,CF][A,CF][A,CF] | %13
 [G,,G,][G,B,D][G,B,D][G,B,D] [G,B,D][G,B,D][G,B,D][G,B,D] | %14
 [_A,,_A,][A,C=F][A,CF][A,CF] [A,CF][A,CF][A,CF][A,CF] | %15
 [G,,G,][G,D=F][G,DF][G,DF] [G,D^E][G,DE][G,DE][G,DE]!ped-up! | %16
 F,,[F,DF][F,DF][F,DF] [F,DF][F,DF][F,B,D][F,^CE] | [F,DF]F,[F,DF]F, [F,G]F,[F,F]F, | %18
 F,F,F,F, F,F,F,F, | B,,8 |!ped! [E,,E,][G,B,EG][G,B,EG][G,B,EG] [G,B,EG][G,B,EG][G,B,EG][G,B,EG] | %21
 E,[G,B,EG][G,B,EG][G,B,EG] [G,B,EG][G,B,EG][G,B,EG][G,B,EG] | %22
!ped! E,!ped-up![G,CG][G,CG][G,CG] [G,CG][G,CG][G,CG][G,CG] | %23
 =F,,!ped-up!!ped![=F,C][F,C][F,C=F] [F,CF][F,CE][F,CE][F,C_E] | %24
!ped! F,,!ped-up![A,DA][A,DA][A,DA] [A,DA][A,DA][A,DA][A,DA] | %25
 G,,[G,D][G,D][G,DG] [G,DG][G,DF][G,DF][G,D=F] | ^G,,[B,EB][B,EB][B,EB] [B,EB][B,EB][B,EB][B,EB] | %27
!ped! A,,[A,E][A,E][A,EA] G,,[A,EA][A,EA][A,EA]!ped-up! | %28
 =F,[A,C=FA][A,CFA][A,CFA] E,[A,CEA][A,CEA][A,CEA] | %29
!ped! [^D,,^D,][C^DFA][CDFA][A,CDF] [A,CDF][F,A,CD][F,A,CD][D,F,A,C]!ped-up! | %30
!ped! [E,,E,][^G,B,E][G,B,E][G,B,E] [E,A,CE]4!ped-up! | [E,,E,][^G,B,E][G,B,E][G,B,E] [E,A,CE]4 | %32
 [E,,E,][^G,B,E][G,B,E][G,B,E] [E,A,CE]4 | [E,,E,]8 | %34
!ped! A,,[A,^CEG][A,CEG][A,CEG] [A,CEG]4!ped-up! |!ped! A,,[A,D][A,DF][A,DF] [A,DF]2 z2!ped-up! | %36
 [^G,,^G,]/B,/[G,D]/E/ [G,DE][G,DE] [G,DE]2 z2 | %37
!ped! [A,,A,]/^C/!ped-up!E/G/ _B2 [A,,A,]/C/E/G/ B2 | %38
!ped! [A,,A,]/D/=F/A/ d2 [A,,A,]/B,/D/F/ ^G2!ped-up! | [A,,A,]/^C/E/G/ _B2 [A,,A,]/C/E/G/ B2 | %40
 [A,,A,]/^C/D/=F/ A2 [A,,A,]/^G,/B,/D/ F2 | [A,,A,]/^G/A/F/ =G/F/G/E/ =F/E/F/^C/ D/A,/_B,/^G,/ | %42
 A,/^G,/A,/F,/ =G,/F,/G,/E,/ =F,/E,/F,/^C,/ D,/A,,/_B,,/^G,,/ | %43
 !>!A,,/_B,,/A,,/B,,/ !>!=B,,/C,/B,,/C,/ !>!^C,/D,/C,/D,/ !>!^D,/E,/D,/E,/ | %44
 !>!=F,/^F,/=F,/^F,/ !>!G,/^G,/=G,/^G,/ !>!A,/_B,/A,/B,/ !>!=B,/C/B,/C/ | %45
 ^D,,[^D,A,F][D,A,F][D,A,F] [D,A,F][D,A,F][D,A,F][D,A,F] | %46
 E,,[E,A,E][E,A,E][E,A,E] [E,CE][E,CE][E,B,E][E,B,E] | %47
 F,,[_E,A,_E][E,A,E][E,A,E] [E,A,E][E,A,E][E,A,E][E,A,E] | %48
 G,,[G,_EG][G,EG][G,EG] [G,EG][G,EG][G,DG][G,DG] | A,,[A,C_EF][A,CEF][A,CEF] [A,CEF]2 z2 | z8 | %51
 ^A,,[^A,^CEG][A,CEG][A,CEG] [A,CEG]2 z2 | z8 | %53
!ped! [B,,,B,,]!ped-up![B,,G,B,][B,,G,B,][B,,G,B,] [B,,G,B,][B,,G,B,][B,,E,B,][B,,F,B,] | %54
 [B,,,B,,][B,,G,B,][B,,G,B,][B,,G,B,] [B,,E,B,][B,,E,B,][B,,G,B,][B,,G,B,] | %55
 [B,,,B,,][B,,E,G,][B,,E,G,][B,,E,G,] [B,,E,G,][B,,E,G,][B,,^D,F,][B,,E,G,] | %56
 [B,,E,G,][B,,E,G,][B,,^D,F,][B,,D,F,B,] [^C,E,^A,B,][C,E,A,B,][D,F,=A,B,][D,F,A,B,] | B,6 ^G,A, | %58
 B,2 E2 z4 | [^E,G,B,][E,G,B,][E,G,B,][E,G,B,] [E,G,B,][E,G,B,][B,^C][B,C] | %60
 [A,^C][A,C][B,D][B,D] [CF][CF][C^^F][CF] | [E^G][EG][EG][EG] [^CG][CG][CG][CG] | %62
!ped! [E^^F]!ped-up![EF][EF][EF] [EF][EF][EF][EF] | %63
!ped! [^CE^^F][CEF][CEF]!ped-up![CEF] [CEG][CEG][CEG][CEG] | %64
!ped! [^CE^G][CEG]!ped-up![CEG][CEG] [CEG][CEG][CEG][CEG] | %65
!ped! [^CE][CE]!ped-up![CE]!ped-up![CE]!ped! [CE][CE][CE][CE] |!ped! [F,B,F]2 z2 z4!ped-up! | z8 | %68
!ped! [E,,G,,]/B,,/E,/G,/[K:treble] B,/E/G/B/!ped-up! e/B/G/E/[K:bass] B,/G,/E,/B,,/ | %69
 [E,,G,,]/B,,/E,/G,/[K:treble] B,/E/G/B/ e/B/G/E/[K:bass] B,/G,/E,/B,,/ | %70
!ped! [C,,G,,]/C,/E,/G,/[K:treble] C/E/G/c/ e/c/G/E/[K:bass] C/G,/E,/C,/!ped-up! | %71
 [C,,G,,]/E,/G,/C/[K:treble] E/G/c/e/ g/e/c/G/[K:bass] E/C/G,/E,/ | %72
 [A,,,E,,]/F,,/C,/E,/[K:treble] F,/C/E/F/ c/F/E/C/[K:bass] F,/E,/C,/F,,/ | %73
"^cresc." [A,,,E,,]/F,,/C,/E,/[K:treble] F,/C/E/F/ c/F/E/C/[K:bass] F,/E,/!mf!C,/!<(!F,,/ | %74
 B,,,/E,,/G,,/B,,/ E,/G,/B,/!<)!!f!!<(!E/[I:staff -1] G/B/e/g/ b/e'/g'/b'/!<)! | %75
[I:staff +1] z4 [B,,F,]2 z2 | E,6 C,D, | E,2 ^G,2 B,2 E2 | A,4 E,4 | %79
!ped! =C,!ped-up![CE][CE][CE] A,,[CE][CE][CE] | ^D,6 B,,^C, | ^D,2 F,2 B,2 ^D2 | E2 E,2 A,,2 B,,2 | %83
 C,2 A,,2 B,,2 B,,2 | [E,,E,][^G,B,E][G,B,E][G,B,E] [G,B,E][G,B,E][G,B,E][G,B,E] | %85
 [^G,B,E][G,B,E][G,B,E][G,B,E] [G,B,E][G,B,E][G,B,E][G,B,E] | [^G,B,E]2 z2 [E,,,E,,]2 z2 | %87
 [E,,,E,,]4 z4 |] %88
V:3
 x8 | x8 | x8 | x8 | x8 | x8 | x8 | x8 | x8 | x2!8va(! x6 | x8 | x8 | x8 | x6!8va)! x2 | x8 | x8 | %16
 x8 | x8 | G4 F2 E2 | ^D[FA][FA][EG] [EG][DF][DF]E | E2 x2 x4 | x8 | x8 | x8 | x8 | x8 | x8 | x8 | %28
 x8 |x/4x7/4- x4- (9:8:9x/4 x/4 x/4 x/4 x/4 x/4 x/4 x/4 x/4 | x8 | x8 | x8 | x8 | x8 | x8 | x8 | %37
 x8 | x8 | x8 | x8 | x8 | x8 | x8 | x8 | x8 | x8 | x8 |!8va(! x8 | x15/2!8va)! x/ | x8 | x8 | x8 | %53
 x8 | x8 | x8 | x8 | x8 | x8 | x8 | x8 | x6[K:bass] x2 | x[K:treble] x5[K:bass] x2 | %63
 x[K:treble] x5[K:bass] x2 | x[K:treble] x5[K:bass] x2 | %65
 x[K:treble] x2[K:bass] x2[K:treble] x2[K:bass] x | x[K:treble] x7 | x8 | x8 | x6!8va(! x2 | %70
 x6!8va)! x2 | x4!8va(! x4 | x6!8va)! x2 | x8 | x8 | x8 | x8 | x8 | %78
 [^CE][CE][CE][CE] [CE][CE][CE][CE] | [CE]2 x2 x4 | x4 z [B,F][B,F][B,F] | %81
 z [B,F][B,F][B,F] z B,B,B, | x8 | x8 |x/x/x- x4 x2 | x8 | x8 | x8 |] %88
V:4
 x8 | x8 | x8 | x8 | x8 | x8 | x8 | x8 | x8 | x8 | x8 | x8 | x8 | x8 | x8 | x8 | x8 | x8 | %18
 E4 D2 ^C2 | B,2 C2 B,2 A,2 | x8 | x8 | x8 | x8 | x8 | x8 | x8 | !>!A,,4 !>!G,,4 | %28
 !>![=F,,=F,]4 !>![E,,E,]4 | x8 | x8 | x8 | x8 | x8 | x8 | x8 | x8 | x8 | x8 | x8 | x8 | x8 | x8 | %43
 x8 | x8 | x8 | x8 | x8 | x8 | x8 | x8 | x8 | x8 | x8 | x8 | x8 | x8 | E,4 ^D,4 | D,8 | ^C,6 ^E,2 | %60
 F,2 F,^G, A,2 ^A,2 | B,8 | ^A,8 | A,8 | ^G,8 | G,4 F,2 E,2 | x8 | x8 | %68
 x2[K:treble] x4[K:bass] x2 | x2[K:treble] x4[K:bass] x2 | x2[K:treble] x4[K:bass] x2 | %71
 x2[K:treble] x4[K:bass] x2 | x2[K:treble] x4[K:bass] x2 | x2[K:treble] x4[K:bass] x2 | x8 | x8 | %76
 x8 | x8 | x8 | x8 | x8 | x8 | x8 | x8 | x8 | x8 | x8 | x8 |] %88

